;FLAVOR:Marlin
;TIME:11664
;Filament used: 6.86029m
;Layer height: 0.16
;MINX:83.036
;MINY:80.004
;MINZ:0.2
;MAXX:139.611
;MAXY:139.993
;MAXZ:29.92
;TARGET_MACHINE.NAME:Creality Ender-3 Pro
;Generated with Cura_SteamEngine 5.7.1
M82 ;absolute extrusion mode
; Ender 3 Custom Start G-code
G92 E0 ; Reset Extruder
G28 ; Home all axes
G1 Z5.0 F3000 ; Move Z Axis up a bit during heating to not damage bed
M104 S175 ; Start heating up the nozzle most of the way
M190 S60 ; Start heating the bed, wait until target temperature reached
M109 S200 ; Finish heating the nozzle
G1 Z2.0 F3000 ; Move Z Axis up little to prevent scratching of Heat Bed
G1 X0.1 Y20 Z0.3 F5000.0 ; Move to start position
G1 X0.1 Y200.0 Z0.3 F1500.0 E15 ; Draw the first line
G1 X0.4 Y200.0 Z0.3 F5000.0 ; Move to side a little
G1 X0.4 Y20 Z0.3 F1500.0 E30 ; Draw the second line
G92 E0 ; Reset Extruder
G1 Z2.0 F3000 ; Move Z Axis up little to prevent scratching of Heat Bed
G1 X5 Y20 Z0.3 F5000.0 ; Move over to prevent blob squish
G92 E0
G92 E0
G1 F1500 E-6.5
;LAYER_COUNT:187
;LAYER:0
M107
G0 F6000 X86.828 Y85.122 Z0.2
;TYPE:SKIRT
G1 F1500 E0
G1 F1200 X87.498 Y84.459 E0.03135
G1 X88.431 Y83.7 E0.07135
G1 X90.148 Y82.456 E0.14187
G1 X90.963 Y81.923 E0.17426
G1 X91.82 Y81.463 E0.20661
G1 X92.678 Y81.095 E0.23767
G1 X93.326 Y80.872 E0.26046
G1 X94.579 Y80.485 E0.30408
G1 X95.521 Y80.243 E0.33642
G1 X96.482 Y80.082 E0.36883
G1 X97.383 Y80.011 E0.39889
G1 X97.971 Y80.004 E0.41845
G1 X102.123 Y80.071 E0.55657
G1 X104.859 Y80.215 E0.64769
G1 X108.83 Y80.3 E0.7798
G1 X111.968 Y80.301 E0.88417
G1 X114.556 Y80.265 E0.97025
G1 X117.649 Y80.13 E1.07323
G1 X120.865 Y80.024 E1.18025
G1 X122.269 Y80.018 E1.22695
G1 X123.171 Y80.058 E1.25698
G1 X124.21 Y80.198 E1.29185
G1 X125.263 Y80.443 E1.3278
G1 X125.948 Y80.645 E1.35156
G1 X126.768 Y80.904 E1.38016
G1 X127.681 Y81.241 E1.41253
G1 X128.563 Y81.656 E1.44495
G1 X129.343 Y82.111 E1.47498
G1 X129.871 Y82.471 E1.49624
G1 X131.586 Y83.714 E1.56668
G1 X132.348 Y84.322 E1.59911
G1 X133.053 Y84.995 E1.63152
G1 X133.697 Y85.731 E1.66405
G1 X134.326 Y86.6 E1.69973
G1 X134.755 Y87.278 E1.72642
G1 X135.049 Y87.778 E1.74571
G1 X135.511 Y88.654 E1.77865
G1 X135.861 Y89.481 E1.80852
G1 X136.07 Y90.035 E1.82821
G1 X136.29 Y90.67 E1.85056
G1 X136.459 Y91.221 E1.86973
G1 X136.699 Y92.082 E1.89946
G1 X136.993 Y93.204 E1.93804
G1 X137.674 Y95.535 E2.01881
G1 X139.048 Y99.665 E2.16358
G1 X139.311 Y100.602 E2.19594
G1 X139.48 Y101.489 E2.22598
G1 X139.595 Y102.777 E2.26899
G1 X139.61 Y103.513 E2.29347
G1 X139.6 Y104.891 E2.3393
G1 X139.552 Y106.173 E2.38197
G1 X139.478 Y108.774 E2.46852
G1 X139.478 Y111.286 E2.55207
G1 X139.552 Y113.883 E2.63848
G1 X139.602 Y115.088 E2.67859
G1 X139.611 Y115.616 E2.69616
G1 X139.598 Y117.023 E2.74296
G1 X139.544 Y117.995 E2.77533
G1 X139.404 Y118.959 E2.80773
G1 X139.191 Y119.865 E2.83869
G1 X139.024 Y120.412 E2.85771
G1 X138.674 Y121.446 E2.89402
G1 X138.385 Y122.266 E2.92294
G1 X137.622 Y124.643 E3.00597
G1 X136.912 Y127.086 E3.09059
G1 X136.487 Y128.678 E3.14539
G1 X136.296 Y129.311 E3.16738
G1 X136.056 Y130.011 E3.19199
G1 X135.894 Y130.447 E3.20746
G1 X135.528 Y131.311 E3.23867
G1 X135.089 Y132.139 E3.26984
G1 X134.751 Y132.718 E3.29214
G1 X134.372 Y133.326 E3.31597
G1 X133.811 Y134.122 E3.34836
G1 X133.182 Y134.866 E3.38076
G1 X132.486 Y135.553 E3.41329
G1 X131.622 Y136.261 E3.45044
G1 X130.318 Y137.216 E3.5042
G1 X129.738 Y137.625 E3.52781
G1 X128.947 Y138.13 E3.55902
G1 X128.051 Y138.596 E3.59261
G1 X127.191 Y138.952 E3.62357
G1 X126.67 Y139.127 E3.64185
G1 X125.419 Y139.513 E3.68539
G1 X124.511 Y139.749 E3.7166
G1 X123.515 Y139.916 E3.75019
G1 X122.614 Y139.986 E3.78024
G1 X122.038 Y139.993 E3.7994
G1 X117.909 Y139.93 E3.93675
G1 X115.101 Y139.783 E4.03027
G1 X111.18 Y139.7 E4.16071
G1 X108.015 Y139.699 E4.26598
G1 X105.434 Y139.735 E4.35184
G1 X102.336 Y139.871 E4.45497
G1 X99.08 Y139.986 E4.56334
G1 X97.69 Y139.987 E4.60957
G1 X96.788 Y139.942 E4.63961
G1 X95.784 Y139.803 E4.67332
G1 X94.581 Y139.509 E4.71451
G1 X93.319 Y139.122 E4.75841
G1 X92.468 Y138.82 E4.78845
G1 X91.519 Y138.383 E4.8232
G1 X90.712 Y137.921 E4.85412
G1 X90.274 Y137.631 E4.8716
G1 X89.713 Y137.239 E4.89436
G1 X88.396 Y136.273 E4.94868
G1 X87.635 Y135.663 E4.98112
G1 X86.934 Y134.99 E5.01344
G1 X86.313 Y134.281 E5.04479
G1 X85.653 Y133.367 E5.08229
G1 X85.251 Y132.729 E5.10737
G1 X84.951 Y132.221 E5.12699
G1 X84.496 Y131.361 E5.15935
G1 X84.14 Y130.521 E5.18969
G1 X83.921 Y129.941 E5.21031
G1 X83.708 Y129.328 E5.2319
G1 X83.442 Y128.4 E5.26401
G1 X83.22 Y127.175 E5.30541
G1 X83.123 Y126.356 E5.33284
G1 X83.051 Y125.271 E5.36901
G1 X83.037 Y124.377 E5.39875
G1 X83.036 Y95.64 E6.35455
G1 X83.048 Y94.795 E6.38265
G1 X83.115 Y93.749 E6.41752
G1 X83.21 Y92.909 E6.44563
G1 X83.359 Y91.976 E6.47706
G1 X83.694 Y90.718 E6.52036
G1 X83.956 Y89.953 E6.54725
G1 X84.117 Y89.524 E6.56249
G1 X84.485 Y88.663 E6.59363
G1 X84.903 Y87.872 E6.62339
G1 X85.236 Y87.301 E6.64538
G1 X85.637 Y86.659 E6.67055
G1 X86.199 Y85.864 E6.70293
G1 X86.828 Y85.122 E6.73529
G0 F6000 X87.11 Y85.406
G1 F1200 X87.751 Y84.769 E6.76534
G1 X88.666 Y84.024 E6.80459
G1 X90.368 Y82.79 E6.87451
G1 X91.152 Y82.275 E6.90571
G1 X91.978 Y81.831 E6.9369
G1 X92.836 Y81.463 E6.96795
G1 X93.444 Y81.254 E6.98933
G1 X94.679 Y80.872 E7.03233
G1 X95.587 Y80.637 E7.06353
G1 X96.513 Y80.481 E7.09476
G1 X97.414 Y80.41 E7.12482
G1 X97.965 Y80.404 E7.14315
G1 X102.102 Y80.47 E7.28076
G1 X104.85 Y80.615 E7.37229
G1 X108.821 Y80.7 E7.50439
G1 X111.974 Y80.701 E7.60926
G1 X114.573 Y80.665 E7.69571
G1 X117.662 Y80.53 E7.79855
G1 X120.867 Y80.424 E7.90521
G1 X122.251 Y80.418 E7.95124
G1 X123.153 Y80.458 E7.98127
G1 X124.12 Y80.588 E8.01372
G1 X125.15 Y80.827 E8.04889
G1 X125.828 Y81.026 E8.07239
G1 X126.63 Y81.279 E8.10036
G1 X127.511 Y81.603 E8.13158
G1 X128.361 Y82.002 E8.16282
G1 X129.141 Y82.457 E8.19285
G1 X129.636 Y82.795 E8.21279
G1 X131.337 Y84.027 E8.28264
G1 X132.072 Y84.612 E8.31389
G1 X132.752 Y85.259 E8.3451
G1 X133.373 Y85.966 E8.3764
G1 X133.988 Y86.814 E8.41124
G1 X134.41 Y87.481 E8.4375
G1 X134.704 Y87.981 E8.45679
G1 X135.143 Y88.81 E8.48799
G1 X135.487 Y89.622 E8.51732
G1 X135.692 Y90.166 E8.53665
G1 X135.908 Y90.788 E8.55855
G1 X136.074 Y91.328 E8.57734
G1 X136.312 Y92.183 E8.60686
G1 X136.609 Y93.316 E8.64582
G1 X137.294 Y95.661 E8.72707
G1 X138.663 Y99.774 E8.87125
G1 X138.918 Y100.677 E8.90246
G1 X139.087 Y101.564 E8.93249
G1 X139.195 Y102.785 E8.97326
G1 X139.21 Y103.51 E8.99738
G1 X139.2 Y104.876 E9.04281
G1 X139.152 Y106.158 E9.08548
G1 X139.078 Y108.763 E9.17216
G1 X139.078 Y111.286 E9.25608
G1 X139.152 Y113.9 E9.34305
G1 X139.202 Y115.095 E9.38283
G1 X139.211 Y115.613 E9.40007
G1 X139.199 Y117.001 E9.44623
G1 X139.148 Y117.938 E9.47744
G1 X139.015 Y118.867 E9.50866
G1 X138.802 Y119.773 E9.53961
G1 X138.645 Y120.284 E9.55739
G1 X138.297 Y121.313 E9.59352
G1 X138.008 Y122.133 E9.62244
G1 X137.241 Y124.521 E9.70586
G1 X136.528 Y126.974 E9.79082
G1 X136.104 Y128.563 E9.84552
G1 X135.918 Y129.181 E9.86699
G1 X135.681 Y129.872 E9.89129
G1 X135.525 Y130.292 E9.90619
G1 X135.174 Y131.124 E9.93622
G1 X134.744 Y131.937 E9.96681
G1 X134.411 Y132.507 E9.98877
G1 X134.045 Y133.096 E10.01183
G1 X133.505 Y133.864 E10.04306
G1 X132.9 Y134.582 E10.07429
G1 X132.232 Y135.244 E10.10557
G1 X131.385 Y135.938 E10.14199
G1 X130.088 Y136.889 E10.19548
G1 X129.522 Y137.288 E10.21851
G1 X128.762 Y137.775 E10.24853
G1 X127.898 Y138.226 E10.28095
G1 X127.038 Y138.582 E10.31191
G1 X126.552 Y138.745 E10.32896
G1 X125.318 Y139.126 E10.37191
G1 X124.444 Y139.355 E10.40196
G1 X123.484 Y139.517 E10.43434
G1 X122.583 Y139.587 E10.4644
G1 X122.044 Y139.593 E10.48233
G1 X117.924 Y139.53 E10.61938
G1 X117.513 Y139.515 E10.63306
G1 X115.109 Y139.383 E10.71313
G1 X111.188 Y139.3 E10.84358
G1 X108.009 Y139.299 E10.94931
G1 X105.416 Y139.335 E11.03556
G1 X102.322 Y139.471 E11.13857
G1 X99.08 Y139.586 E11.24647
G1 X97.71 Y139.587 E11.29203
G1 X96.808 Y139.542 E11.32207
G1 X95.879 Y139.414 E11.35326
G1 X94.676 Y139.12 E11.39445
G1 X93.453 Y138.745 E11.437
G1 X92.602 Y138.443 E11.46703
G1 X91.718 Y138.036 E11.4994
G1 X90.911 Y137.574 E11.53033
G1 X90.503 Y137.303 E11.54662
G1 X89.95 Y136.916 E11.56907
G1 X88.646 Y135.96 E11.62285
G1 X87.912 Y135.374 E11.65408
G1 X87.235 Y134.726 E11.68525
G1 X86.614 Y134.017 E11.7166
G1 X85.991 Y133.153 E11.75203
G1 X85.595 Y132.526 E11.7767
G1 X85.304 Y132.033 E11.79574
G1 X84.864 Y131.205 E11.82692
G1 X84.514 Y130.38 E11.85673
G1 X84.299 Y129.809 E11.87702
G1 X84.093 Y129.218 E11.89784
G1 X83.827 Y128.29 E11.92995
G1 X83.614 Y127.104 E11.97002
G1 X83.522 Y126.329 E11.99598
G1 X83.451 Y125.265 E12.03145
G1 X83.437 Y124.377 E12.06099
G1 X83.436 Y95.645 E13.01662
G1 X83.447 Y94.82 E13.04406
G1 X83.512 Y93.794 E13.07825
G1 X83.605 Y92.971 E13.1058
G1 X83.746 Y92.079 E13.13584
G1 X84.081 Y90.821 E13.17914
G1 X84.33 Y90.094 E13.2047
G1 X84.485 Y89.681 E13.21937
G1 X84.853 Y88.82 E13.25051
G1 X85.249 Y88.073 E13.27863
G1 X85.576 Y87.512 E13.30023
G1 X85.964 Y86.889 E13.32464
G1 X86.504 Y86.122 E13.35584
G1 X87.11 Y85.406 E13.38704
G0 F6000 X87.392 Y85.69
G1 F1200 X88.033 Y85.053 E13.41709
G1 X88.901 Y84.348 E13.45429
G1 X90.588 Y83.124 E13.52361
G1 X91.342 Y82.627 E13.55365
G1 X92.136 Y82.198 E13.58366
G1 X92.966 Y81.841 E13.61371
G1 X93.562 Y81.636 E13.63468
G1 X94.78 Y81.259 E13.67708
G1 X95.654 Y81.031 E13.70713
G1 X96.544 Y80.88 E13.73715
G1 X97.445 Y80.809 E13.76721
G1 X97.959 Y80.804 E13.78431
G1 X102.087 Y80.87 E13.92162
G1 X102.487 Y80.885 E13.93494
G1 X104.841 Y81.015 E14.01335
G1 X108.812 Y81.1 E14.14546
G1 X111.98 Y81.101 E14.25082
G1 X114.59 Y81.065 E14.33764
G1 X117.675 Y80.93 E14.44035
G1 X120.869 Y80.824 E14.54664
G1 X122.233 Y80.818 E14.59201
G1 X123.135 Y80.858 E14.62204
G1 X124.03 Y80.978 E14.65207
G1 X125.038 Y81.211 E14.68648
G1 X125.708 Y81.407 E14.7097
G1 X126.493 Y81.655 E14.73708
G1 X127.341 Y81.965 E14.76711
G1 X128.159 Y82.348 E14.79715
G1 X128.939 Y82.803 E14.82719
G1 X129.401 Y83.119 E14.8458
G1 X131.089 Y84.341 E14.91511
G1 X131.797 Y84.902 E14.94516
G1 X132.452 Y85.524 E14.9752
G1 X133.049 Y86.201 E15.00522
G1 X133.65 Y87.028 E15.03922
G1 X134.065 Y87.684 E15.06504
G1 X134.351 Y88.169 E15.08377
G1 X134.775 Y88.966 E15.1138
G1 X135.113 Y89.763 E15.14259
G1 X135.314 Y90.298 E15.1616
G1 X135.526 Y90.906 E15.18301
G1 X135.689 Y91.435 E15.20142
G1 X135.925 Y92.285 E15.23077
G1 X136.225 Y93.428 E15.27007
G1 X136.914 Y95.787 E15.35181
G1 X138.278 Y99.883 E15.4954
G1 X138.525 Y100.752 E15.52544
G1 X138.694 Y101.639 E15.55548
G1 X138.795 Y102.793 E15.59401
G1 X138.81 Y103.507 E15.61776
G1 X138.8 Y104.861 E15.66279
G1 X138.752 Y106.143 E15.70546
G1 X138.678 Y108.752 E15.79227
G1 X138.678 Y111.286 E15.87656
G1 X138.752 Y113.917 E15.9641
G1 X138.802 Y115.102 E16.00355
G1 X138.811 Y115.61 E16.02044
G1 X138.8 Y116.98 E16.06601
G1 X138.752 Y117.882 E16.09606
G1 X138.626 Y118.776 E16.12608
G1 X138.42 Y119.655 E16.15611
G1 X138.266 Y120.156 E16.17354
G1 X137.92 Y121.18 E16.20949
G1 X137.631 Y122 E16.23841
G1 X136.86 Y124.399 E16.32222
G1 X136.144 Y126.862 E16.40753
G1 X135.721 Y128.448 E16.46213
G1 X135.54 Y129.051 E16.48307
G1 X135.306 Y129.733 E16.50705
G1 X135.156 Y130.137 E16.52138
G1 X134.805 Y130.969 E16.55142
G1 X134.399 Y131.735 E16.58025
G1 X134.071 Y132.296 E16.60187
G1 X133.717 Y132.867 E16.62421
G1 X133.199 Y133.607 E16.65425
G1 X132.618 Y134.298 E16.68428
G1 X131.978 Y134.935 E16.71432
G1 X131.149 Y135.615 E16.74998
G1 X129.857 Y136.562 E16.80326
G1 X129.306 Y136.951 E16.82569
G1 X128.546 Y137.438 E16.85571
G1 X127.745 Y137.857 E16.88578
G1 X126.911 Y138.203 E16.91581
G1 X126.434 Y138.363 E16.93254
G1 X125.217 Y138.739 E16.97491
G1 X124.343 Y138.968 E17.00496
G1 X123.453 Y139.118 E17.03498
G1 X122.552 Y139.188 E17.06504
G1 X122.05 Y139.193 E17.08173
G1 X117.938 Y139.13 E17.21852
G1 X117.535 Y139.116 E17.23193
G1 X115.117 Y138.983 E17.31247
G1 X111.196 Y138.9 E17.44291
G1 X108.003 Y138.899 E17.54911
G1 X105.398 Y138.935 E17.63576
G1 X102.308 Y139.071 E17.73864
G1 X99.08 Y139.186 E17.84607
G1 X97.73 Y139.187 E17.89097
G1 X96.828 Y139.142 E17.92101
G1 X95.934 Y139.018 E17.95103
G1 X94.793 Y138.738 E17.9901
G1 X93.587 Y138.368 E18.03206
G1 X92.736 Y138.066 E18.06209
G1 X91.916 Y137.689 E18.09211
G1 X91.132 Y137.241 E18.12215
G1 X90.732 Y136.975 E18.13812
G1 X90.186 Y136.593 E18.16029
G1 X88.895 Y135.647 E18.21352
G1 X88.188 Y135.085 E18.24356
G1 X87.535 Y134.462 E18.27358
G1 X86.938 Y133.783 E18.30365
G1 X86.329 Y132.94 E18.33824
G1 X85.939 Y132.322 E18.36254
G1 X85.657 Y131.845 E18.38097
G1 X85.232 Y131.048 E18.41101
G1 X84.888 Y130.239 E18.44025
G1 X84.677 Y129.677 E18.46022
G1 X84.471 Y129.086 E18.48104
G1 X84.221 Y128.219 E18.51105
G1 X84.008 Y127.033 E18.55112
G1 X83.921 Y126.302 E18.57561
G1 X83.851 Y125.259 E18.61038
G1 X83.837 Y124.377 E18.63972
G1 X83.836 Y95.65 E19.59518
G1 X83.846 Y94.845 E19.62196
G1 X83.909 Y93.839 E19.65548
G1 X84 Y93.033 E19.68246
G1 X84.141 Y92.141 E19.7125
G1 X84.459 Y90.951 E19.75347
G1 X84.705 Y90.234 E19.77868
G1 X84.853 Y89.838 E19.79274
G1 X85.207 Y89.007 E19.82278
G1 X85.595 Y88.274 E19.85037
G1 X85.916 Y87.723 E19.87157
G1 X86.291 Y87.119 E19.89522
G1 X86.81 Y86.38 E19.92526
G1 X87.392 Y85.69 E19.95528
G1 F1500 E13.45528
G0 F6000 X94.978 Y92.825
G1 F1500 E19.95528
G1 F1200 X94.996 Y92.829 E19.95589
G1 X95.147 Y92.803 E19.96099
G1 X95.646 Y92.489 E19.9806
G1 X95.666 Y92.475 E19.98141
G1 X96.058 Y92.153 E19.99828
G1 X96.071 Y92.141 E19.99887
G1 X96.586 Y91.638 E20.02281
G1 X96.694 Y91.68 E20.02667
G1 X96.769 Y91.669 E20.02919
G1 X97.434 Y91.441 E20.05257
G1 X97.472 Y91.423 E20.05397
G1 X97.741 Y91.261 E20.06441
G1 X97.825 Y91.326 E20.06795
G1 X97.889 Y91.337 E20.07011
G1 X98.447 Y91.343 E20.08867
G1 X98.536 Y91.323 E20.0917
G1 X98.655 Y91.266 E20.09609
G1 X98.792 Y91.361 E20.10163
G1 X99.143 Y91.409 E20.11342
G1 X99.169 Y91.411 E20.11428
G1 X99.645 Y91.413 E20.13012
G1 X99.671 Y91.411 E20.13098
G1 X100.046 Y91.364 E20.14355
G1 X101.743 Y91.269 E20.20009
G1 X101.764 Y91.319 E20.20189
G1 X101.837 Y91.361 E20.20469
G1 X100.978 Y91.361 E20.23326
G1 X100.122 Y91.407 E20.26177
G1 X100.102 Y91.409 E20.26244
G1 X99.212 Y91.55 E20.29241
G1 X99.18 Y91.558 E20.29351
G1 X98.265 Y91.862 E20.32558
G1 X98.243 Y91.871 E20.32637
G1 X97.664 Y92.144 E20.34766
G1 X97.642 Y92.156 E20.34849
G1 X97.239 Y92.412 E20.36437
G1 X97.22 Y92.425 E20.36514
G1 X96.777 Y92.783 E20.38408
G1 X96.751 Y92.809 E20.3853
G1 X96.175 Y93.482 E20.41477
G1 X96.142 Y93.535 E20.41684
G1 X95.859 Y94.214 E20.44131
G1 X95.846 Y94.263 E20.443
G1 X95.751 Y94.944 E20.46587
G1 X95.749 Y94.972 E20.4668
G1 X95.749 Y125.028 E21.46647
G1 X95.751 Y125.056 E21.4674
G1 X95.846 Y125.737 E21.49027
G1 X95.859 Y125.786 E21.49196
G1 X96.142 Y126.464 E21.51639
G1 X96.175 Y126.517 E21.51847
G1 X96.751 Y127.191 E21.54796
G1 X96.777 Y127.216 E21.54916
G1 X97.221 Y127.576 E21.56817
G1 X97.24 Y127.59 E21.56895
G1 X97.643 Y127.844 E21.5848
G1 X97.664 Y127.856 E21.5856
G1 X98.243 Y128.13 E21.60691
G1 X98.266 Y128.139 E21.60773
G1 X99.181 Y128.443 E21.6398
G1 X99.213 Y128.451 E21.64089
G1 X100.102 Y128.591 E21.67083
G1 X100.123 Y128.593 E21.67153
G1 X100.98 Y128.638 E21.70007
G1 X101.842 Y128.638 E21.72874
G1 X101.821 Y128.684 E21.73042
G1 X100.906 Y128.681 E21.76086
G1 X100.047 Y128.635 E21.78947
G1 X99.787 Y128.601 E21.79819
G1 X99.771 Y128.599 E21.79873
G1 X99.263 Y128.574 E21.81564
G1 X99.225 Y128.576 E21.81691
G1 X98.798 Y128.636 E21.83125
G1 X98.653 Y128.736 E21.83711
G1 X98.564 Y128.692 E21.84041
G1 X98.484 Y128.671 E21.84316
